udata_front/theme/gouvfr/templates/svg/filter.svg

<svg fill="none" height="40" viewBox="0 0 40 40" width="40" xmlns="http://www.w3.org/2000/svg"><rect fill="#fff" height="39" rx="19.5" width="39" x=".5" y=".5"/><path d="m26.3164 12.75h-12.6602c-.6015 0-.9023.7109-.4648 1.1211l5.0586 5.0586v5.6328c0 .2187.082.4375.2734.5469l2.1875 1.5312c.4375.3008 1.0391 0 1.0391-.5468v-7.1641l5.0312-5.0586c.4376-.4102.1368-1.1211-.4648-1.1211z" fill="#d7d7d7"/><rect height="39" rx="19.5" stroke="#eee" width="39" x=".5" y=".5"/></svg>

<svg width="40" height="40" viewBox="0 0 40 40" fill="none" xmlns="http://www.w3.org/2000/svg">
<rect x="0.5" y="0.5" width="39" height="39" rx="19.5" fill="white" class="fillColor" />
<path d="M26.3164 12.75H13.6562C13.0547 12.75 12.7539 13.4609 13.1914 13.8711L18.25 18.9297V24.5625C18.25 24.7812 18.332 25 18.5234 25.1094L20.7109 26.6406C21.1484 26.9414 21.75 26.6406 21.75 26.0938V18.9297L26.7812 13.8711C27.2188 13.4609 26.918 12.75 26.3164 12.75Z" fill="#D7D7D7"/>
<rect x="0.5" y="0.5" width="39" height="39" rx="19.5" stroke="#EEEEEE"/>
</svg>
